X:6004
T:Fiery Clock Face
T:Coal-hole, The
R:Jig
C:Trad. Song, 1888
O:Newcastle England
Z:Paul Hardy's Session Tunebook 2015 (see www.paulhardy.net). Creative Commons cc by-nc-sa licenced.
M:6/8
L:1/8
Q:3/8=130
K:Gmaj
D|"G"G2 G G,2 A,|B,2 C D2 E|"F"=F2 F A,2 B,|C2 D "D7"E2 F|"G"G2 G G,2 A,|B,2 C D2 D|"C"EFG "D7"A2 F|"G"G3 G2:|
|:G/2A/2|"G"B2 B GAB|"C"c2 B A2 G|"D"F2 E D2 E|"D7"F2 G A2 _B|"G"B2 B GAB|"Am"c2 B A2 G|"D7"FED E2 F|"G"G3 G2:|

